packages/icons/assets/DeployAlt.svg

<svg xmlns="http://www.w3.org/2000/svg" viewBox="0 0 12 16"><path fill="#414141" d="M5.503906 15.988281v-2.996093H6.5v2.996093ZM7.5 14.992188v-2h1v2Zm-3.996094 0v-2h1v2Zm5.164063-2.996094H3.335938L.0117188 7.71875 1.195312 2.382812 6.003906.0117188l4.804688 2.3710932 1.1875 5.335938-3.324219 4.277344ZM1.996094 2.988281l-.988282 4.445313 2.773438 3.5625h4.445312l2.769532-3.566406-.988282-4.445313-4.003906-1.976563Zm0 0"/></svg>

<svg xmlns="http://www.w3.org/2000/svg" viewBox="0 0 12 16"><path fill="#414141" d="M5.5 15.99v-3h1v3Zm2-1v-2h1v2Zm-4 0v-2h1v2Zm5.17-3H3.34L0 7.73l1.2-5.35L6 .01l4.8 2.37L12 7.72 8.67 12ZM2 3 1 7.43 3.79 11h4.45L11 7.43l-1-4.45-4-1.97Zm0 0"/></svg>
